X:1
T:Heidelberg, 85.85.85 D
T:Heidelberg, 85.85.85 D
T:Leander Lycurgus Pickett, 1897
T:Public Domain Courtesy of the Cyber Hymnal™
C:Leander Lycurgus Pickett, 1897
Z:Public Domain
Z:Courtesy of the Cyber Hymnal™
%%score ( 1 2 ) ( 3 4 )
L:1/8
Q:1/4=112
M:4/4
K:Ab
V:1 treble 
V:2 treble 
V:3 bass 
V:4 bass 
V:1
 [Ec]2 [Ec]2 [CA]3 [CE] | [EA]2 [EA]2 [DF] [CE]3 | [CA]2 [EA]2 [DG]2 [CA]2 | [EB]6 z2 | %4
 [Ec]2 [Ec]2 [CA]3 [CE] | [EA]2 [EA]2 [DF] [CE]3 | [CA]2 [EA]2 [DG]2 [DB]2 | [CA]6 z2 | %8
 [EA]2 [EA]2 [EB]2 E2 | [EA]2 [EB]2 [Ec]2 A2 | [GB]2 [GB]2 [Fc]2 [FB]2 | [Ge]6 z2 | %12
 [Ec]2 [Ec]2 [CA]3 [CE] | [EA]2 [EA]2 [DF] [CE]3 | [CA]2 [CA]2 [Ec]3 [DB] | [CA]6 z2 | %16
 [EA]2 [EA]2 [EB]2 E2 | [EA]2 [EB]2 [Ec]2 [EA]2 | [GB]2 [GB]2 [Fc]2 [A=d]2 | [Ge]6 z2 | %20
 [Ec]2 [Ec]2 [Fd]2 [Ec]2 | [DB]2 [CA]2 [EG]2 [DF]2 | [CE]3 [Ed] [Ec]2 [DB]2 | [CA]6 |] %24
V:2
 x8 | x8 | x8 | x8 | x8 | x8 | x8 | x8 | x6 E2 | x6 A2 | x8 | x8 | x8 | x8 | x8 | x8 | x6 E2 | x8 | %18
 x8 | x8 | x8 | x8 | x8 | x6 |] %24
V:3
 [A,,A,]2 [A,,A,]2 [A,,A,]3 [A,,A,] | [A,,C]2 [A,,C]2 [A,,A,] [A,,A,]3 | %2
 [A,,A,]2 [C,A,]2 [B,,E,]2 [A,,A,]2 | [E,G,]6 z2 | [A,,A,]2 [A,,A,]2 [A,,A,]3 [A,,A,] | %5
 [A,,C]2 [A,,C]2 [A,,A,] [A,,A,]3 | [A,,A,]2 [C,A,]2 [B,,E,]2 [E,G,]2 | [A,,A,]6 z2 | %8
 [A,,C]2 [C,A,]2 [E,G,]2 [D,B,]2 | [C,A,]2 [E,G,]2 A,2 [A,,C]2 | [E,E]2 [E,E]2 [B,=D]2 [B,D]2 | %11
 [E,E]6 z2 | [A,,A,]2 [A,,A,]2 [A,,A,]3 [A,,A,] | [A,,C]2 [A,,C]2 [A,,A,] [A,,A,]3 | %14
 [A,,A,]2 [A,,A,]2 [E,A,]3 [E,G,] | [A,,A,]6 z2 | [A,,C]2 [C,A,]2 [E,G,]2 [D,B,]2 | %17
 [C,A,]2 [E,G,]2 A,2 [E,A,C]2 | [E,E]2 [E,E]2 [B,=D]2 B,2 | [E,B,]6 z2 | A,2 A,2 A,2 [A,,A,]2 | %21
 [B,,G,]2 [C,A,]2 [D,B,]2 [D,A,]2 | [E,A,]3 [E,A,] [E,A,]2 [E,G,]2 | [A,,A,]6 |] %24
V:4
 x8 | x8 | x8 | x8 | x8 | x8 | x8 | x8 | x8 | x4 A,2 x2 | x8 | x8 | x8 | x8 | x8 | x8 | x8 | %17
 x4 A,2 x2 | x6 B,2 | x8 | A,2 A,2 A,2 x2 | x8 | x8 | x6 |] %24

